X: 431
T: A Trip To The Lakes
R: jig
M: 6/8
K: Gmajor
d|:gfg dBG|ABc BAG|gfg ABc|BGB dBd|
gfg dBG|ABc BAG|gfg ABc|BGG G2d:|
|:gfg dBd|gfg ece|gfg dBG|ABc BAG|
gfg dBd|gfg ece|ABc Bed|1 BGG G2d:|2 BGG G2A||
|:BGG cGG|eGG d3|ded cBA|Bdc BAG|
BGG cGG|eGG d3|ded cBA|1 BGG G2A:|2 BGG G3||

